public/avatar/hat/76.svg

<svg xmlns:xlink="http://www.w3.org/1999/xlink" height="92.9" width="100.7" xmlns="http://www.w3.org/2000/svg"><use height="28.55" transform="translate(21.75 37.4)" width="33.75" xlink:href="#a"/><defs><g id="a"><path d="m7.7-9.75 1.15-.6 2.85.1q2.3 1 1.85 4.65 1.55 1.05 1.7 4.15.15 3.35-.95 4.35l.65.95q.65 1.3.6 2.9 0 2.65-2.25 4.25l-2.55-4.85Q9.45 4.2 7 2.55 3.8.35.7.5-5.4.75-10.2 7q-2.15 2.9-3.85 4.3-2.55-2.5-2.45-4.5l.9-3.3q-1.15-2.05-.6-4.8.6-2.75 2.15-3.8-.1-3.35 1.8-4.25 2.6-1.25 4.5 0 1.9-2.5 4.3-2.5 2.35 0 3.4 2l1.4-1.25q1.75-1.2 3.3-.75 2.6.75 3.05 2.1" fill="#e80000" fill-rule="evenodd" transform="translate(16.9 12.35)"/><path d="m1.1-1.75 3.7.65q1.7.6 3.4 4l-3.65.25q-1.15 0-2.15-.8l-.75-.85-1.9.75-2.55.25-3.4.4 1.1-1.65 2.9-2.6 3.3-.4" fill="#e30000" fill-rule="evenodd" transform="translate(16.9 12.35)"/><path d="M-2.45 1.4-5.9 4.25q-1.95 1.25-3.7 1.4l.7-3.9 6.45-.35" fill="#d42828" fill-rule="evenodd" transform="translate(16.9 12.35)"/><path d="M5.75 2.25 6.1.5 9.6 2 12 6.25q-2.9-.25-3.85-1l-2.4-3" fill="#e30000" fill-rule="evenodd" transform="translate(16.9 12.35)"/><path d="m11.65 5.65.3 1.75 1.85-.15q2.15.9 1.9 5.3-.2 2.95-4.45 3.45l1.4-2.35q.15-.4-.7-1.2-1.1-1.1-1.4-2.45l-.5-4.5 1.6.15" fill="#e80000" fill-rule="evenodd" transform="translate(16.9 12.35)"/><path d="m-11.45 5.65 1.6-.15-1 4.5q-.5 1.35-1.7 2.45-.95.8-.9 1.2l1.1 2.35q-3.8-.8-3.85-2.8-.05-2.7 1.15-4.6l1.25-1.35 1.85.15.5-1.75" fill="#d42828" fill-rule="evenodd" transform="translate(16.9 12.35)"/><path d="M-7.35 3.75q-.55 2.15-1.6 3.4-1.1 1.25-2.85 1.35l-.65-1.75 2.9-2.6 2.2-.4" fill="#d42828" fill-rule="evenodd" transform="translate(16.9 12.35)"/><path d="m.55-2.4 2.7.35Q2.4-.5 1.85-.25q-.5.2-.2 1.05.25.8.9.75Q4 1.3 3.85 3.3q-.05.9-1.8 2.05-1.2.75.9 3 .85.8 2.6-1.35l.95-.1-1.05 2.25q-1.55 2.5-4.15.45Q.1 8.7-.35 7.25q-.3-.9.6-2.15L1.3 4.05Q-.8 2.8-1.05 1q-.2-1.1.7-2.35l.9-1.05" fill="#e80000" fill-rule="evenodd" transform="translate(16.9 12.35)"/><path d="M-12.25-9.35q1.85-1.5 4.5 0l1.95-1.75q2.15 2.2 2.05 3.55-.05 1.4-1.1 2.2l.9.4q1 .5 1.1 1.1.2 1-1.05 1.65l.85.6Q-2.1-.8-1.8.05q.6 1.4.6 2.4l-.6.2-1.85-.25Q-5.1 3.9-5.9 4.25l-1.95.9-1.1 2-1.4.85-.3 1.55q-.4 1.65-1.1 2.2-1.6 1.4-1.7 1.9-.2.85 1.1 2.35-3.35-.25-3.85-2.5-.3-1.45.2-2.8l.55-1.05q-.9-1.9-.95-3.4l.8-2.75q-1.1-2.2-.6-4.8.55-2.55 2.15-3.8 0-2.75 1.8-4.25" fill="#ba1313" fill-rule="evenodd" transform="translate(16.9 12.35)"/><path d="M12.25-10.1q-2.4-1.1-4.75 0-1.4-1.75-3.65-1.75-1.45 0-2.8 1l-1.1 1q-.55-1.75-2.8-1.75-1.4 0-2.65.75L-7.25-9.3q-2.9-1.8-5.4.5Q-14.4-7.1-14-5.1q-1.6 1.5-2.2 3.8-.55 2.35.6 4.8l-.8 2.75.95 3.4-.95 2.75q0 2.15 1.65 3.3" fill="none" stroke="#850e0e" stroke-linecap="round" stroke-linejoin="round" transform="translate(16.9 12.35)"/><path d="M9.9 5.8q-1.35-.3-2.1-.85l-2-2-.8.2-1.2-.1v-1.1L2.9.65l2.45.8.6.85.9-.05q1.05.05 1.55.65.85.9.75 1.75L9.9 5.8" fill="#ba1313" fill-rule="evenodd" transform="translate(16.9 12.35)"/><path d="M13.7-6q1.45 3.25 1.5 5-.05 1.75-.9 3.9l1.35 2.35q.35 1.4-.45 3.25l.5 4.05q-.15 1.45-1.2 2.35" fill="none" stroke="#850e0e" stroke-linecap="round" stroke-linejoin="round" transform="translate(16.9 12.35)"/><path d="M8.65-8.9q.5-.25.85.25.4.7.85.85.65.25 1.3-.65.55-.8.45-1.25l-.5-1.35.65.05q1 .35 2.6 1.7 2.65 2.15 1.75 6L14-6.6l.25 2.55q-1.3-1.7-1.85-1.35-.35.2-.25 2.95l.25 2.7L8.8-3.3l-.4 1.85q-.7-2.05-1.5-1.6-.45.3.1 2l.7 1.7Q5.15-.6 4.4-2.6q-.45-1.25-.05-3.25l.5-1.75 1.05.95 1.15.25q.8 0 .85-.35L8-7.8q0-.75.65-1.1" fill-rule="evenodd" transform="translate(16.9 12.35)"/></g></defs></svg>

<?xml version="1.0" encoding="UTF-8" standalone="no"?>
<svg xmlns:xlink="http://www.w3.org/1999/xlink" height="92.9px" width="100.7px" xmlns="http://www.w3.org/2000/svg">
  <g transform="matrix(1.0, 0.0, 0.0, 1.0, 38.65, 49.75)">
    <use height="28.55" transform="matrix(1.0, 0.0, 0.0, 1.0, -16.9, -12.35)" width="33.75" xlink:href="#shape0"/>
  </g>
  <defs>
    <g id="shape0" transform="matrix(1.0, 0.0, 0.0, 1.0, 16.9, 12.35)">
      <path d="M7.7 -9.75 L8.85 -10.35 11.7 -10.25 Q14.0 -9.25 13.55 -5.6 15.1 -4.55 15.25 -1.45 15.4 1.9 14.3 2.9 L14.95 3.85 Q15.6 5.15 15.55 6.75 15.55 9.4 13.3 11.0 L10.75 6.15 Q9.45 4.2 7.0 2.55 3.8 0.35 0.7 0.5 -5.4 0.75 -10.2 7.0 -12.35 9.9 -14.05 11.3 -16.6 8.8 -16.5 6.8 L-15.6 3.5 Q-16.75 1.45 -16.2 -1.3 -15.6 -4.05 -14.05 -5.1 -14.15 -8.45 -12.25 -9.35 -9.65 -10.6 -7.75 -9.35 -5.85 -11.85 -3.45 -11.85 -1.1 -11.85 -0.05 -9.85 L1.35 -11.1 Q3.1 -12.3 4.65 -11.85 7.25 -11.1 7.7 -9.75" fill="#e80000" fill-rule="evenodd" stroke="none"/>
      <path d="M1.1 -1.75 L4.8 -1.1 Q6.5 -0.5 8.2 2.9 L4.55 3.15 Q3.4 3.15 2.4 2.35 L1.65 1.5 -0.25 2.25 -2.8 2.5 -6.2 2.9 -5.1 1.25 -2.2 -1.35 1.1 -1.75" fill="#e30000" fill-rule="evenodd" stroke="none"/>
      <path d="M-2.45 1.4 L-5.9 4.25 Q-7.85 5.5 -9.6 5.65 L-8.9 1.75 -2.45 1.4" fill="#d42828" fill-rule="evenodd" stroke="none"/>
      <path d="M5.75 2.25 L6.1 0.5 9.6 2.0 12.0 6.25 Q9.1 6.0 8.15 5.25 L5.75 2.25" fill="#e30000" fill-rule="evenodd" stroke="none"/>
      <path d="M11.65 5.65 L11.95 7.4 13.8 7.25 Q15.95 8.15 15.7 12.55 15.5 15.5 11.25 16.0 L12.65 13.65 Q12.8 13.25 11.95 12.45 10.85 11.35 10.55 10.0 L10.05 5.5 11.65 5.65" fill="#e80000" fill-rule="evenodd" stroke="none"/>
      <path d="M-11.45 5.65 L-9.85 5.5 -10.85 10.0 Q-11.35 11.35 -12.55 12.45 -13.5 13.25 -13.45 13.65 L-12.35 16.0 Q-16.15 15.2 -16.2 13.2 -16.25 10.5 -15.05 8.6 L-13.8 7.25 -11.95 7.4 -11.45 5.65" fill="#d42828" fill-rule="evenodd" stroke="none"/>
      <path d="M-7.35 3.75 Q-7.9 5.9 -8.95 7.15 -10.05 8.4 -11.8 8.5 L-12.45 6.75 -9.55 4.15 -7.35 3.75" fill="#d42828" fill-rule="evenodd" stroke="none"/>
      <path d="M0.55 -2.4 L3.25 -2.05 Q2.4 -0.5 1.85 -0.25 1.35 -0.05 1.65 0.8 1.9 1.6 2.55 1.55 4.0 1.3 3.85 3.3 3.8 4.2 2.05 5.35 0.85 6.1 2.95 8.35 3.8 9.15 5.55 7.0 L6.5 6.9 5.45 9.15 Q3.9 11.65 1.3 9.6 0.1 8.7 -0.35 7.25 -0.65 6.35 0.25 5.1 L1.3 4.05 Q-0.8 2.8 -1.05 1.0 -1.25 -0.1 -0.35 -1.35 L0.55 -2.4" fill="#e80000" fill-rule="evenodd" stroke="none"/>
      <path d="M-12.25 -9.35 Q-10.4 -10.85 -7.75 -9.35 L-5.8 -11.1 Q-3.65 -8.9 -3.75 -7.55 -3.8 -6.15 -4.85 -5.35 L-3.95 -4.95 Q-2.95 -4.45 -2.85 -3.85 -2.65 -2.85 -3.9 -2.2 L-3.05 -1.6 Q-2.1 -0.8 -1.8 0.05 -1.2 1.45 -1.2 2.45 L-1.8 2.65 -3.65 2.4 Q-5.1 3.9 -5.9 4.25 L-7.85 5.15 -8.95 7.15 -10.35 8.0 -10.65 9.55 Q-11.05 11.2 -11.75 11.75 -13.35 13.15 -13.45 13.65 -13.65 14.5 -12.35 16.0 -15.7 15.75 -16.2 13.5 -16.5 12.05 -16.0 10.7 L-15.45 9.65 Q-16.35 7.75 -16.4 6.25 L-15.6 3.5 Q-16.7 1.3 -16.2 -1.3 -15.65 -3.85 -14.05 -5.1 -14.05 -7.85 -12.25 -9.35" fill="#ba1313" fill-rule="evenodd" stroke="none"/>
      <path d="M12.25 -10.1 Q9.85 -11.2 7.5 -10.1 6.1 -11.85 3.85 -11.85 2.4 -11.85 1.05 -10.85 L-0.05 -9.85 Q-0.6 -11.6 -2.85 -11.6 -4.25 -11.6 -5.5 -10.85 L-7.25 -9.3 Q-10.15 -11.1 -12.65 -8.8 -14.4 -7.1 -14.0 -5.1 -15.6 -3.6 -16.2 -1.3 -16.75 1.05 -15.6 3.5 L-16.4 6.25 -15.45 9.65 -16.4 12.4 Q-16.4 14.55 -14.75 15.7" fill="none" stroke="#850e0e" stroke-linecap="round" stroke-linejoin="round" stroke-width="1.0"/>
      <path d="M9.9 5.8 Q8.55 5.5 7.8 4.95 L5.8 2.95 5.0 3.15 3.8 3.05 3.8 1.95 2.9 0.65 5.35 1.45 5.95 2.3 6.85 2.25 Q7.9 2.3 8.4 2.9 9.25 3.8 9.15 4.65 L9.9 5.8" fill="#ba1313" fill-rule="evenodd" stroke="none"/>
      <path d="M13.7 -6.0 Q15.15 -2.75 15.2 -1.0 15.15 0.75 14.3 2.9 L15.65 5.25 Q16.0 6.65 15.2 8.5 L15.7 12.55 Q15.55 14.0 14.5 14.9" fill="none" stroke="#850e0e" stroke-linecap="round" stroke-linejoin="round" stroke-width="1.0"/>
      <path d="M8.65 -8.9 Q9.15 -9.15 9.5 -8.65 9.9 -7.95 10.35 -7.8 11.0 -7.55 11.65 -8.45 12.2 -9.25 12.1 -9.7 L11.6 -11.05 12.25 -11.0 Q13.25 -10.65 14.85 -9.3 17.5 -7.15 16.6 -3.3 L14.0 -6.6 14.25 -4.05 Q12.95 -5.75 12.4 -5.4 12.05 -5.2 12.15 -2.45 L12.4 0.25 8.8 -3.3 8.4 -1.45 Q7.7 -3.5 6.9 -3.05 6.45 -2.75 7.0 -1.05 L7.7 0.65 Q5.15 -0.6 4.4 -2.6 3.95 -3.85 4.35 -5.85 L4.85 -7.6 5.9 -6.65 7.05 -6.4 Q7.85 -6.4 7.9 -6.75 L8.0 -7.8 Q8.0 -8.55 8.65 -8.9" fill="#000000" fill-rule="evenodd" stroke="none"/>
    </g>
  </defs>
</svg>
